!!!!SEGMENT: offering-013a.krn
!!!COM: Bach, Johann Sebastian
!!!CDT: 1685/03/31-1750/07/28
!!!OPR@@DE: Musicalisches Opfer
!!!OPR@EN: Musical Offering
!!!OTL: Trio
!!!OMV: 1
!!!OMD: Largo
!!!SCA: BWV 1079
!!!voices: 3
**kern	**fb	**kern	**kern
*part4	*part2	*part3	*part2
*staff3	*	*staff2	*staff1
*I"Continuo	*	*I"Violino	*I"Flauto\ntraverso
*I"cont.	*	*I'vln.	*I'flt.
*clefF4	*	*clefG2	*clefG2
*k[b-e-a-]	*	*k[b-e-a-]	*k[b-e-a-]
*M3/4	*	*M3/4	*M3/4
*MM52	*	*MM52	*MM52
*>A	*>A	*>A	*>A
=1	=1	=1	=1
(8CL	.	8.gL	2.r
8C	.	.	.
.	.	16ee-Jk	.
.	.	(8qqcc/	.
8D	6nr	4.bnt)	.
8D	.	.	.
8D	.	.	.
8DJ)	.	8cc	.
=2	=2	=2	=2
(8E-L	6_	4.cc	2.r
8E-	.	.	.
8En	X	.	.
8E	.	(16b-XLL	.
.	.	16a-JJ	.
.	.	16qqcc	.
8E	5-r	8b-L	.
.	.	.	.
8EJ)	.	16a-L	.
.	.	16gJJ)	.
=3	=3	=3	=3
(8FL	.	16a-LL	8.ccL
.	.	(16g	.
8F	.	16a-	.
.	.	16ccJJ)	16aa-Jk
.	nr6	.	(8qqff/
8G	.	(16b-LL	4.eent)
.	.	16dd-X)	.
8G	.	(16dd-	.
.	.	16ccJJ)	.
8G	.	(16ccLL	.
.	.	16b-)	.
8GJ)	.	(16b-	8ff
.	.	16ccJJ)	.
=4	=4	=4	=4
(8A-L	6	16ccLL	4.ff
.	.	(16bn	.
8A-J	.	16cc	.
.	.	16ee-JJ)	.
8BBnL	6 5-r	[2ddn	.
8BB	.	.	(16ee-XLL
.	.	.	16ddJJ
.	.	.	(16qqgg/
8BB	.	.	8ffL)
8BBJ)	.	.	16ee-L
.	.	.	16ddJJ)
!!LO:LB:g=original
=5	=5	=5	=5
8.CL	.	8dd_L]	8ee-L
.	.	(32dd]LL	(32ffLL
.	.	32cc	32ee-
16cJk	.	32bn	32dd
.	.	32ccJJJ)	32ee-JJJ)
(8qqG/	.	.	.
4.F#X)	7 5	4.ccT	4.ee-T
8G	n	8bn	8dd
=6	=6	=6	=6
4G	n_	16bnLL	(16ddLL
.	.	(16g	16f#XJ)
.	.	16b	8g'J
.	.	16ddJJ)	.
8r	.	(16ffLL	8r
.	.	16aa-)	.
(8GGL	.	(16aa-	8bn/
.	.	16ggJJ)	.
8GG	X	(16ggLL	8.btL
.	.	16ff)	.
8GGJ)	.	(16ff	.
.	.	16ee-JJ)	32anLL
.	.	.	32bJJJ
=7	=7	=7	=7
4GG	6 4	(16ee-LL	16ccLL
.	.	16bnJ)	(16d
.	.	8cc'J	16e-
.	.	.	16gJJ)
8r	.	8r	(16ccLL
.	.	.	16ee-)
!	!	!LO:TX:b:i:t=piano	!
8GL	7#r_ 4 2	8f#X	(16ee-
.	.	.	16ddJJ)
8G	.	8.f#tL	(16ddLL
.	.	.	16cc)
8GJ	X	.	((16cc
.	.	32enLL	16bnJJ))
.	.	32f#JJJ	.
=8	=8	=8	=8
16GLL	8 5 3nr	2g	2bn
(16GG	.	.	.
16BBn	.	.	.
16DJJ)	.	.	.
(16FLL	4nr 2	.	.
16A-)	.	.	.
(16A-	.	.	.
16GJJ)	.	.	.
(16GLL	n	4r	4r
16F)	.	.	.
(16F	.	.	.
16EnJJ)	.	.	.
!!LO:LB:g=original
=9	=9	=9	=9
16EnLL	6	2.r	8.ccL
16C	.	.	.
16E	.	.	.
16GJJ	.	.	16bb-XJk
.	nr4_ 2	.	(8qqaa-/
(16B-LL	.	.	4.ggt)
16d-X)	.	.	.
(16d-	.	.	.
16cJJ)	.	.	.
16cLL	.	.	.
16B-	.	.	.
16A-	.	.	8aa-
16GJJ	.X	.	.
=10	=10	=10	=10
16FLL	.	8.fL	[2.aa-
16FF	.	.	.
16AA-	.	.	.
16CJJ	.	16ee-Jk	.
.	.	(8qqdd/	.
(16E-XLL	.	4.ccT)	.
16G)	.	.	.
(16G	.	.	.
16FJJ)	4_ 2	.	.
16FLL	.	.	.
16E-	.	.	.
16D	.	8dd	.
16CJJ	.	.	.
=11	=11	=11	=11
(8BB-L	7	[2.dd	16aa-LL]
.	.	.	(16b-
8BB-	.	.	16dd
.	.	.	16ffJJ)
8BB-	.	.	(16aa-LL
.	.	.	16ccc)
8BB-	.	.	(16ccc
.	.	.	16bb-JJ)
8BB-	.	.	(16bb-LL
.	.	.	16aa-)
8BB-J)	.	.	(16aa-
.	.	.	16ggJJ)
=12	=12	=12	=12
(8E-L	7	16ddLL]	[2.gg
.	.	(16e-	.
8E-	.	16g	.
.	.	16b-JJ)	.
8E-	7-r	(16dd-XLL	.
.	.	16ff)	.
8E-	.	(16ff	.
.	.	16ee-JJ)	.
8E-	.	(16ee-LL	.
.	.	16dd-)	.
8E-J)	.	(16dd-	.
.	.	16ccJJ)	.
!!LO:LB:g=original
=13	=13	=13	=13
4AA-	7	8ccL	16ggLL]
.	.	.	(16ccc
.	.	(8c	16een
.	.	.	16ffJJ)
4A-	6	8f	16r
.	.	.	(16aa-LL
.	.	8a-	16bn
.	.	.	16ccJJ)
8r	.	8cc	16r
.	.	.	(16ffLL
8C	6	8ee-XJ)	16g
.	.	.	16a-JJ)
=14	=14	=14	=14
4BB-	7_	16ddLL	8a-L
.	.	(16B-	.
.	.	16g	(8dd
.	.	16fJJ)	.
4B-	X	16r	8ff
.	.	(16dLL	.
.	.	16cc	8aa-J)
.	.	16b-JJ)	.
8r	.	16r	16cccLL
.	.	(16fLL>	(16aa-
8A-	4 2	16ee-	16gg
.	.	16ddJJ)	16ffJJ)
=15	=15	=15	=15
8GL	6	8.ee-L	8.bb-L
8A-	7 5	.	.
.	.	16a-Jk	16ccJk
.	.	(8qqg/	(8qqee-/
8B-	6 4	4.fT)	4.ddt)
8B-	.	.	.
8BB-	5 3	.	.
8BB-J	.	8e-	8ee-
=16	=16	=16	=16
8EE-L<	.	2.e-	2.ee-
8E-	.	.	.
8G	.	.	.
8F	.	.	.
8E-	.	.	.
8DJ	.	.	.
!!LO:LB:g=original
=17:|!|:	=17:|!|:	=17:|!|:	=17:|!|:
*>B	*>B	*>B	*>B
(8E-L	.	2.r	8.ggL
8E-	.	.	.
.	.	.	16b-Jk
.	6-r	.	(32qqcc/LLL
.	.	.	32qqdd-X/
.	.	.	32qqee-/JJJ
8F	.	.	4.dd-XT)
8F	.	.	.
8G	5-r	.	.
8GJ)	.	.	8cc
=18	=18	=18	=18
(8A-L	.	2.r	16ccLL
.	.	.	(16dn
8A-	.	.	16e-
.	.	.	16gJJ)
8A-	.	.	(16a-LL
.	.	.	16cc
8A-	.	.	16ee-
.	.	.	16ddJJ)
8G-X	6	.	[4ee-
8G-J)	.	.	.
=19	=19	=19	=19
8FL	7 n	8.aanL	16ee-LL]
.	.	.	(16ccc
8F	.	.	16dd
.	.	16ccJk	16ee-JJ)
.	.	(32qqdd/LLL	.
.	.	32qqee-/	.
.	.	32qqff/JJJ	.
8Gn	6	4.ee-T)	16r
.	.	.	(16ggLL
8G	.	.	16an
.	.	.	16b-JJ)
8An	5-r	.	16r
.	.	.	(16ee-LL
8AJ	.	8dd	16f
.	.	.	16g-XJJ)
=20	=20	=20	=20
8B-L	.	16ddLL	8fL
.	.	(16en	.
8B-	.	16f	(8ee-X
.	.	16anJJ)	.
8B-	.	(16b-LL	8dd)
.	.	16dd	.
8B-	.	16ff	(8aa-X
.	.	16eenJJ)	.
8A-X	6	[4ff	8bn
8A-J	.	.	8ccJ)
!!LO:LB:g=original
=21	=21	=21	=21
(8GL	7 n	16ffLL]	8bnL
.	.	(16ddd	.
8G	.	16een	8gJ
.	.	16ffJJ)	.
8D	6nr	16r	8r
.	.	(16aa-LL	.
8D	.	16bn	8ff
.	.	16ccJJ)	.
8BBn	6 5	16r	8.ddtL
.	.	((16ffLL	.
8BBJ)	.	16g	.
.	.	16a-JJ))	32ccLL
.	.	.	32ddJJJ
=22	=22	=22	=22
(8CL	.	4g	[2.ee-
8C	.	.	.
8BB-X	4 2	8r	.
8BB-	.	8cc	.
8AAn	.	(8.f#XtL	.
8AAJ)	6#/ 5-r	.	.
.	.	32enLL	.
.	.	32f#JJJ)	.
=23	=23	=23	=23
(8BB-L	6	4.g	8ee-]
8BB-	.	.	4dd
8E-	7	.	.
8E-	.	8G	(16ccLL
.	.	.	16b-JJ)
8C	6	(16cLL	(16anLL
.	.	16B-	16g
8CJ)	6nr	16An	16f#X
.	.	16B-JJ)	16gJJ)
=24	=24	=24	=24
16DLL	#	4An	8f#XL
(16DD	.	.	.
16FF#X	7 5	.	(8ee-X
16AAnJJ)	.	.	.
(16CLL>	4#/ 2	8r	8dd)
16E-)	.	.	.
(16E-	6 2	(8aanL	(8ff#X
16DJJ)	.	.	.
16DLL	6 4	8bb-	8gg
16C	.	.	.
16BB-	7#/ 5#/	8cccJ)	8aanJ)
16AAJJ	.	.	.
!!LO:LB:g=original
=25	=25	=25	=25
.	.	.	(16qqcc/
(8GGL	.	8.dddL	(16b-LL)
.	.	.	16anJ
8GG	.	.	8gJ)
.	.	16ddJk	.
.	.	(32qqee-/LLL	.
.	.	32qqff/	.
.	.	32qqgg/JJJ	.
8AAn	6	4.ffT)	4r
8AA	.	.	.
8BBn	6 5	.	4r
8BBJ)	.	8ee-	.
=26	=26	=26	=26
(8CL>	.	(16ee-LL	8.ggL
.	.	16ff	.
8C	.	16ee-)	.
.	.	16ddJJ	16gJk
.	6 4	.	(32qqan/LLL
.	.	.	32qqb-/
.	.	.	32qqcc/JJJ
8D	.	(16ddLL	4.b-T)
.	.	16ee-	.
8D	.	16dd)	.
.	.	16cc'JJ	.
8E-	6 5	[4cc	.
8E-J)	.	.	8an
=27	=27	=27	=27
8FF#XL	7 5	8.ccL]	(16anLL
.	.	.	16b-
8AAn	.	.	16a)
.	.	16e-Jk	16g'JJ
8C	5 3	[4e-	(16gLL
.	.	.	16a
8BB-	.	.	16g)
.	.	.	16f#X'JJ
8C	.	8.e-]L	8.f#L
8AAJ	4#/_ 3	.	.
.	.	16ee-Jk	16ff#XJk
=28	=28	=28	=28
8BB-L	6	8.ddL	8.ggL
8GG	.	.	.
.	.	16bb-Jk	16gJk
8D	6 4	(4gg	(4b-
8D	.	.	.
8DD	.	8.ff#XtL)	8.antL)
8DDJ	5nr #	.	.
.	.	16ggJk	16gJk
!!LO:LB:g=original
=29	=29	=29	=29
8GGL	.	16ggLL	4g
.	.	(16bb-	.
8GG	.	16cc#X	.
.	.	16ddJJ)	.
8BB-	6_	16r	[2dd
.	.	(16ggLL	.
8D	.	16an	.
.	.	16b-JJ)	.
8BB-	.	16r	.
.	.	(16ddLL<	.
8GGJ	.	16f#X	.
.	.	16gJJ)	.
=30	=30	=30	=30
8EE-L	7	16g'LL	16ddLL]
.	.	(16dd	(16g
8E-	6	16bn	16ffn
.	.	16ccJJ)	16ee-JJ)
8D	6nr 5-r	(8aa-XL	16r
.	.	.	(16bnLL
8D	.	8ff	16aa-X
.	.	.	16ggJJ)
8G	7 n	8bn	16r
.	.	.	(16ddLL
8GJ	.	8fJ)	16ccc
.	.	.	16bbnJJ)
=31	=31	=31	=31
.	.	(16qqf/	.
8CL	.	(8e-L)	16cccLL
.	.	.	(16eee-
8C	.	16dL	16ff#X
.	.	16cJJ)	16ggJJ)
8E-	6_	[2g	16r
.	.	.	(16cccLL
8G	.	.	16dd
.	.	.	16ee-JJ)
8E-	.	.	16r
.	.	.	(16ggLL
8CJ	.	.	16bn
.	.	.	16ccJJ)
=32	=32	=32	=32
8AA-L	7	16gLL]	16cc'LL
.	.	(16c	(16bb-X
8A-	6	16b-	16een
.	.	16a-JJ)	16ffJJ)
8G	6nr 5-r	16r	(8ddd-XL
.	.	(16enLL	.
8G	.	16dd-X	8bb-
.	.	16ccJJ)	.
8c	7 n	16r	8een
.	.	(16gLL	.
8cJ	.	16ff	8b-J)
.	.	16eenJJ)	.
!!LO:LB:g=original
=33	=33	=33	=33
(8FL	.	4ff	8.a-L
8F	.	.	.
.	.	.	16aa-Jk
.	.	.	(8qqff
8G	6nr	4r	4.eent)
8G	.	.	.
8G	.	4r	.
8GJ)	.	.	8ff
=34	=34	=34	=34
8A-L	6	2.r	4.ff
8A-	.	.	.
(8BBn	6 5-r	.	.
8BB	.	.	(16ee-XLL
.	.	.	16ddJJ
.	.	.	16qqgg/
8BB	.	.	8ffL
8BBJ)	.	.	16ee-L
.	.	.	16ddJJ)
=35	=35	=35	=35
8CL	.	8.gL	16ee-LL
.	.	.	(16dd
8C	.	.	16ee-
.	.	16ee-Jk	16ggJJ)
.	.	(8qqcc/	.
(8D	6nr	4.bnt)	(16ffLL
.	.	.	16aa-)
8D	.	.	(16aa-
.	.	.	16ggJJ)
8D	.	.	(16ggLL
.	.	.	16ff)
8DJ)	.	8cc	(16ff
.	.	.	16ggJJ)
=36	=36	=36	=36
8E-L	6	4.cc	16ggLL
.	.	.	(16ff#X
8E-	.	.	16gg
.	.	.	16cccnJJ)
.	7 5	.	(8qqffn/
!	!	!	!LO:TR:acc=none
(8FF#X	.	.	2ee-T)
8FF#	.	(16bnLL	.
.	.	16anJJ	.
.	.	16qqdd/	.
8FF#	.	8ccL>	.
8FF#J)	.	16bL	.
.	.	16aJJ)	.
!!LO:LB:g=original
=37	=37	=37	=37
8GGL	n	4bn	16dd'LL
.	.	.	(16g
8G	.	.	16bn
.	.	.	16ddJJ)
8D	6nr	4r	16ffn'LL
.	.	.	(16aa-
8BBn	.	.	16gg
.	.	.	16ffJJ)
8GG	7 n	4r	16ddd'LL
.	.	.	(16aa-
8BBJ	.	.	16gg
.	.	.	16ffJJ)
=38	=38	=38	=38
8CL	.	16r	8.ee-L
.	.	(16cLL	.
8c	.	16e-	.
.	.	16gJJ)	16bb-XJk
.	nr6	.	(8qqff/
8G	.	16b-X'LL	4.een)
.	.	(16dd-X	.
8En	.	16cc	.
.	.	16b-JJ)	.
8C	7 n	16gg'LL	.
.	.	(16dd-	.
8EJ	.	16cc	[8gg
.	.	16b-JJ)	.
=39	=39	=39	=39
8FFL	9	8.a-L	16ggLL]
.	.	.	(16f
8F	8	.	16a-
.	.	16ee-Jk	16ccJJ)
.	.	(8qqb-/	.
8C	6nr	4an)	16ee-X'LL
.	.	.	(16gg
8AAn	7-r n	.	16ff
.	.	.	16ee-JJ)
8FF	.	8r	16ccc'LL
.	.	.	(16gg
8AAJ	.	[8cc	16ff
.	.	.	16ee-JJ)
=40	=40	=40	=40
8BB-L	9	16ccLL]	8.ddL
.	.	(16B-	.
8B-	8	16d	.
.	.	16fJJ)	16aa-XJk
.	.	.	(8qqee-/
8F	6	16a-X'LL>	[2dd)
.	.	(16cc	.
8D	.	16b-	.
.	.	16a-JJ)	.
8BB-	7	16ff'LL	.
.	.	(16cc	.
8DJ	.	16b-	.
.	.	16a-JJ)	.
!!LO:LB:g=original
=41	=41	=41	=41
16BBnLL	6 5	8.gL	8.ddL]
16GG	.	.	.
16BB	.	.	.
16DJJ	.	16a-Jk	16ffJk
.	nr4_ 2	(8qqe-/	(8qqcc/
(16FLL	.	4.d)	4.bn)
16A-)	.	.	.
(16A-	.	.	.
16GJJ)	.	.	.
(16GLL	.	.	.
16F)	.	.	.
(16F	.	8bn	8aa-
16E-JJ)	.	.	.
=42	=42	=42	=42
(8E-L	6	8.ccL>	8.ggL
8F	7	.	.
.	.	16a-Jk	16ccJk
8G	6 4	(4e-	(4cc
8G	.	.	.
8GG	5 n	8.dtL)	8.bntL)
8GGJ)	.	.	.
.	.	16cJk	16ccJk
=43	=43	=43	=43
(8AA-L	7	(16cLL	4cc
.	.	16e-	.
8AA-	.	16g	.
.	.	16ccJJ)	.
8AA-	6	(16ffLL	8r
.	.	16aa-)	.
8AA-	.	(16aa-	8cc
.	.	16ggJJ)	.
.	.	.	(8qqdd-X/
!	!	!	!LO:TR:acc=none
8AA-	.	(16ggLL	8.cctL)
.	.	16ff)	.
8AA-J)	.	(16ff	.
.	.	16eenJJ)	32b-XLL
.	.	.	32ccJJJ
=44	=44	=44	=44
(8GGL	6nr_ 5-r	4een	16dd-XLL
.	.	.	(16b-
8GG	.	.	16een
.	.	.	16ggJJ)
8GG	_ 4	8r	(16bb-LL
.	.	.	16ddd-X)
8GG	.	8en	(16ddd-
.	.	.	16cccJJ)
8GG	_ 3	8.etL	(16cccLL
.	.	.	16bb-)
8GGJ)	.	.	(16bb-
.	.	32dLL	16aa-JJ)
.	.	32eJJJ	.
!!LO:LB:g=original
=45	=45	=45	=45
4FF	5	16f'LL	8aa-L
.	.	(16aa-	.
.	.	16cc	(8a-
.	.	16dd-XJJ)	.
4F	6-r	16r	8dd-X
.	.	(16ffLL	.
.	.	16g	8ff
.	.	16a-JJ)	.
8r	.	16r	8aa-
.	.	(16dd-LL<	.
8AA-	6	16en	8ddd-XJ)
.	.	16fJJ)	.
=46	=46	=46	=46
4GG	7 n	8fL	16bbnLL
.	.	.	(16g
.	.	(8bn	16ee-
.	.	.	16ddJJ)
4G	.	8dd	16r
.	.	.	(16bnLL
.	.	8ffJ)	16aa-
.	.	.	16ggJJ)
8r	.	16aa-'LL	16r
.	.	(16ff	(16ddLL
8F	4nr	16ee-	16ccc
.	.	16ddJJ)	16bbJJ)
=47	=47	=47	=47
8E-L	6	8.ggL	8.cccL
8F	7 n	.	.
.	.	16anJk	16ffJk
.	.	(8qqcc/	(8qqee-/
8G	6 4	4.bnt)	4.ddt)
8G	.	.	.
8GG	7 n	.	.
8GGJ	.	8cc	8cc
=48	=48	=48	=48
*>B1	*>B1	*>B1	*>B1
16CCLL	.	2.cc	2.cc
16C	.	.	.
16E-	.	.	.
16GJJ	.	.	.
16cLL	.	.	.
16e-	.	.	.
16d	.	.	.
16cJJ	.	.	.
16B-LL	7 5	.	.
16A-	.	.	.
16G	.	.	.
16FJJ	.	.	.
=49:|!	=49:|!	=49:|!	=49:|!
*>B2	*>B2	*>B2	*>B2
2.CC	.	2.cc	2.cc
==	==	==	==
*-	*-	*-	*-
!!!system-decoration: [(s1,s2,s3)]
!!!RDF**kern: > = above
!!!RDF**kern: < = below
!!!URL-pdf: https://s9.imslp.org/files/imglnks/usimg/5/55/IMSLP10042-BWV1079-b.pdf#page=20 @{SMS}
!!!URL-youtube: https://www.youtube.com/watch?v=3QWxjD2qBAc&t=4s Netherlands Bach Society
!!!SMS: Bach-Gesellschaft Ausgabe, Band 31.2 Leipzig: Breitkopf und Härtel, 1885. Plate B.W. XXXI(2).
!!!PED: Alfred Döffel
!!!PED-ODT: 1821-1905
!!!ENC: Craig Stuart Sapp
!!!END: 2024/03/31
!!!EED: Craig Stuart Sapp
!!!EEV: 2024/03/31
!!!title: @{OTL}, @{OMV}. @{OTL} (@{SCA})
